packages/axiom-components/src/Pictogram/svgs/topics-wheel.svg

<svg height="16" viewBox="0 0 16 16" width="16" xmlns="http://www.w3.org/2000/svg"><g fill-rule="evenodd"><path d="m5.72634077 13.1880107c.67301281.2949802 1.41438635.4628918 2.19377073.4733849l-.02052529 2.3330872-.07559073-.0005062c-1.11835503-.0238592-2.18020954-.2772745-3.14033382-.7150164zm4.65811573-.0519321 1.004659 2.1073035c-.9712563.4553759-2.04906896.7212075-3.18580547.7498621l.02063351-2.3357527c.769535-.0302003 1.49963209-.2139307 2.16051296-.5214129zm1.8403521-1.3678908 1.7753158 1.5157192c-.6561713.7445007-1.448688 1.3659552-2.3384949 1.8253084l-1.0057656-2.1084032c.5938068-.3161365 1.1246769-.7348998 1.5689447-1.2326244zm1.2644289-2.37684202 2.2797337.50578913c-.2861043 1.17473009-.8316389 2.24787389-1.5724774 3.15530519l-1.7753046-1.5164549c.4975062-.621172.8668791-1.3494085 1.0680483-2.14463942zm-10.75257562-7.41735384 1.5160532 1.77478205c-.45392793.40040128-.84319636.87240313-1.15013573 1.39833603l-2.05224455-1.11400012c.40989739-.71672253.92750608-1.36392049 1.5307677-1.91953553zm8.83480732-1.13319928c.9940935.49731681 1.8701279 1.1956498 2.5748205 2.04171637l-1.8010936 1.48447645c-.4802977-.57443923-1.0723262-1.05224387-1.7426728-1.40000131zm-3.53174506-.84024094-.0202078 2.33339977-.02160124-.00004032c-.54341458 0-1.06895532.07652702-1.56643311.21939196l-.74103059-2.20122095-.28771923.09689949.7397443 2.19582515c-.60543434.20981877-1.16423897.51945119-1.65672702.90921038l-1.51659982-1.77562272c1.37382222-1.11218109 3.12349261-1.77839448 5.02876547-1.77839448zm.3038843.00678476c1.04963848.04463725 2.04690826.29157835 2.95381486.70282896l-.9678778 2.12439542c-.61764862-.27935237-1.29435452-.45113645-2.00622395-.49145846z" fill-opacity=".75"/><path d="m10.8187308 8.79904275 2.6705491.5921356c-.6208216 2.45445225-2.8439847 4.27074065-5.4913648 4.27074065-.80788993 0-1.57627416-.169144-2.27167166-.473951l1.22292596-2.4515922c.32563874.1247861.6792075.1931594 1.0487457.1931594 1.34133154 0 2.4722642-.9008249 2.8208157-2.13049245zm-7.86195726-3.38595828 2.40309992 1.30457796c-.18807735.38682651-.29357848.82121904-.29357848 1.28025267 0 1.14172179.65266251 2.1310061 1.60524735 2.6151127l-1.21992767 2.4456388c-1.84928331-.9322904-3.11770349-2.8483933-3.11770349-5.0607515 0-.93118349.2247102-1.80988311.62286237-2.58483063zm9.57707286-.80782166c.7084369.94564982 1.1280726 2.12014547 1.1280726 3.39265229 0 .37529906-.0365012.7420728-.1061472 1.09696482l-2.6695537-.59205389c.0284749-.16403059.0433171-.33273746.0433171-.50491093 0-.61249073-.1878309-1.1811112-.5090334-1.65140203zm-4.51496971-2.2714459-.02372414 2.73213793-.11807861.00278541c-1.00149176.04060475-1.87353082.58362528-2.37086087 1.38380527l-2.40380117-1.30514856c.9530605-1.63326543 2.7000662-2.74649487 4.71189487-2.8105661zm.30423493.00927361c1.6143978.09138389 3.04796358.85888226 4.02201938 2.02381702l-2.1087281 1.7378797c-.4768402-.56326267-1.16244684-.94415098-1.93737162-1.02321667z" fill-opacity=".3"/><path d="m15.9927287 8.12743099.0031015-.12951589c0 .5489423-.0553035 1.08496778-.1606428 1.6028088l-2.2794736-.50554851c.0602807-.30708259.095745-.62306226.1042185-.94576443zm-.1664602-1.77555515c.0798074.38147735.1324342.77294187.1557622 1.17227525l.0119693.30094234-2.3344138.01987209c-.0084837-.32533753-.0441337-.64099844-.1045522-.94776836zm-.6199865-1.82318631c.2334288.48413307.419521.99537988.5522714 1.52773499l-2.2702548.54435359c-.087504-.34492061-.2066566-.67721944-.3541855-.99362427zm-.8701222-1.40925854c.2750723.35685128.5206816.73758189.7331857 1.13854971l-2.0707592 1.07780883c-.1365161-.25590435-.2921009-.50009798-.4648576-.73068391z"/><path d="m3.93817151 11.9475303c.43721959.4493337.94839705.8263371 1.5138768 1.1113549l-1.04203544 2.0889563c-.83438407-.4195223-1.58522431-.980803-2.22090567-1.652227zm-1.23351046-1.9297811c.24085029.6308103.59122095 1.2075142 1.02786033 1.7068601l-1.74792629 1.5466648c-.64215704-.7316793-1.15290212-1.5815485-1.49536997-2.5127422zm-2.68392527-2.60021195 2.32419665.22413739c-.00731125.1178078-.01102126.23659087-.01102126.35624046 0 .60453088.09470856 1.18694139.2700976 1.73320346l-2.21400892.74082604c-.25316621-.77904992-.38999985-1.6105601-.38999985-2.4740295 0-.13011399.00310704-.25950231.00925098-.38809478zm.88409324-3.11840549 2.0518035 1.11422721c-.30272281.58928686-.50515719 1.23856014-.58476228 1.92527899l-2.32370336-.22351672c.11053429-1.00668899.40789578-1.9571596.85666214-2.81598948z"/></g></svg>

<?xml version="1.0" encoding="UTF-8"?>
<svg width="16px" height="16px" viewBox="0 0 16 16" version="1.1" xmlns="http://www.w3.org/2000/svg" xmlns:xlink="http://www.w3.org/1999/xlink">
    <title>Topics Wheel</title>
    <g id="Topics-Wheel" stroke="none" stroke-width="1" fill="none" fill-rule="evenodd">
        <g id="Group" fill="#000000">
            <path d="M5.72634077,13.1880107 C6.39935358,13.4829909 7.14072712,13.6509025 7.9201115,13.6613956 L7.89958621,15.9944828 L7.82399548,15.9939766 C6.70564045,15.9701174 5.64378594,15.7167021 4.68366166,15.2789602 L5.72634077,13.1880107 Z M10.3844565,13.1360786 L11.3891155,15.2433821 C10.4178592,15.698758 9.34004654,15.9645896 8.20331003,15.9932442 L8.22394354,13.6574915 C8.99347854,13.6272912 9.72357563,13.4435608 10.3844565,13.1360786 Z M12.2248086,11.7681878 L14.0001244,13.283907 C13.3439531,14.0284077 12.5514364,14.6498622 11.6616295,15.1092154 L10.6558639,13.0008122 C11.2496707,12.6846757 11.7805408,12.2659124 12.2248086,11.7681878 Z M13.4892375,9.39134578 L15.7689712,9.89713491 C15.4828669,11.071865 14.9373323,12.1450088 14.1964938,13.0524401 L12.4211892,11.5359852 C12.9186954,10.9148132 13.2880683,10.1865767 13.4892375,9.39134578 Z M2.73666188,1.97399194 L4.25271508,3.74877399 C3.79878715,4.14917527 3.40951872,4.62117712 3.10257935,5.14711002 L1.0503348,4.0331099 C1.46023219,3.31638737 1.97784088,2.66918941 2.5811025,2.11357437 L2.73666188,1.97399194 Z M11.5714692,0.840792657 C12.5655627,1.33810947 13.4415971,2.03644246 14.1462897,2.88250903 L12.3451961,4.36698548 C11.8648984,3.79254625 11.2728699,3.31474161 10.6025233,2.96698417 L11.5714692,0.840792657 Z M8.03972414,0.000551724138 L8.01951634,2.33395149 L7.9979151,2.33391117 C7.45450052,2.33391117 6.92895978,2.41043819 6.43148199,2.55330313 L5.6904514,0.352082178 L5.40273217,0.448981671 L6.14247647,2.64480682 C5.53704213,2.85462559 4.9782375,3.16425801 4.48574945,3.5540172 L2.96914963,1.77839448 C4.34297185,0.666213393 6.09264224,-7.99360578e-15 7.9979151,-7.99360578e-15 L8.03972414,0.000551724138 Z M8.34360844,0.0073364842 C9.39324692,0.0519737287 10.3905167,0.29891483 11.2974233,0.710165442 L10.3295455,2.83456086 C9.71189688,2.55520849 9.03519098,2.38342441 8.32332155,2.3431024 L8.34360844,0.0073364842 Z" id="Combined-Shape" fill-opacity="0.75"></path>
            <path d="M10.8187308,8.79904275 L13.4892799,9.39117835 C12.8684583,11.8456306 10.6452952,13.661919 7.9979151,13.661919 C7.19002517,13.661919 6.42164094,13.492775 5.72624344,13.187968 L6.9491694,10.7363758 C7.27480814,10.8611619 7.6283769,10.9295352 7.9979151,10.9295352 C9.33924664,10.9295352 10.4701793,10.0287103 10.8187308,8.79904275 Z M2.95677354,5.41308447 L5.35987346,6.71766243 C5.17179611,7.10448894 5.06629498,7.53888147 5.06629498,7.9979151 C5.06629498,9.13963689 5.71895749,10.1289212 6.67154233,10.6130278 L5.45161466,13.0586666 C3.60233135,12.1263762 2.33391117,10.2102733 2.33391117,7.9979151 C2.33391117,7.06673161 2.55862137,6.18803199 2.95677354,5.41308447 Z M12.5338464,4.60526281 C13.2422833,5.55091263 13.661919,6.72540828 13.661919,7.9979151 C13.661919,8.37321416 13.6254178,8.7399879 13.5557718,9.09487992 L10.8862181,8.50282603 C10.914693,8.33879544 10.9295352,8.17008857 10.9295352,7.9979151 C10.9295352,7.38542437 10.7417043,6.8168039 10.4205018,6.34651307 L12.5338464,4.60526281 Z M8.01887669,2.33381691 L7.99515255,5.06595484 L7.87707394,5.06874025 C6.87558218,5.109345 6.00354312,5.65236553 5.50621307,6.45254552 L3.1024119,5.14739696 C4.0554724,3.51413153 5.8024781,2.40090209 7.81430677,2.33683086 L8.01887669,2.33381691 Z M8.32311162,2.34309052 C9.93750942,2.43447441 11.3710752,3.20197278 12.345131,4.36690754 L10.2364029,6.10478724 C9.7595627,5.54152457 9.07395606,5.16063626 8.29903128,5.08157057 L8.32311162,2.34309052 Z" id="Combined-Shape" fill-opacity="0.3"></path>
            <path d="M15.9927287,8.12743099 L15.9958302,7.9979151 C15.9958302,8.5468574 15.9405267,9.08288288 15.8351874,9.6007239 L13.5557138,9.09517539 C13.6159945,8.7880928 13.6514588,8.47211313 13.6599323,8.14941096 L15.9927287,8.12743099 Z M15.8262685,6.35187584 C15.9060759,6.73335319 15.9587027,7.12481771 15.9820307,7.52415109 L15.994,7.82509343 L13.6595862,7.84496552 C13.6511025,7.51962799 13.6154525,7.20396708 13.555034,6.89719716 L15.8262685,6.35187584 Z M15.206282,4.52868953 C15.4397108,5.0128226 15.625803,5.52406941 15.7585534,6.05642452 L13.4882986,6.60077811 C13.4007946,6.2558575 13.281642,5.92355867 13.1341131,5.60715384 L15.206282,4.52868953 Z M14.3361598,3.11943099 C14.6112321,3.47628227 14.8568414,3.85701288 15.0693455,4.2579807 L12.9985863,5.33578953 C12.8620702,5.07988518 12.7064854,4.83569155 12.5337287,4.60510562 L14.3361598,3.11943099 Z" id="Combined-Shape"></path>
            <path d="M3.93817151,11.9475303 C4.3753911,12.396864 4.88656856,12.7738674 5.45204831,13.0588852 L4.41001287,15.1478415 C3.5756288,14.7283192 2.82478856,14.1670385 2.1891072,13.4956145 L3.93817151,11.9475303 Z M2.70466105,10.0177492 C2.94551134,10.6485595 3.295882,11.2252634 3.73252138,11.7246093 L1.98459509,13.2712741 C1.34243805,12.5395948 0.831692972,11.6897256 0.489225119,10.7585319 L2.70466105,10.0177492 Z M0.0207357842,7.41753725 L2.34493243,7.64167464 C2.33762118,7.75948244 2.33391117,7.87826551 2.33391117,7.9979151 C2.33391117,8.60244598 2.42861973,9.18485649 2.60400877,9.73111856 L0.389999848,10.4719446 C0.136833643,9.69289468 -1.02140518e-14,8.8613845 -1.02140518e-14,7.9979151 C-1.02140518e-14,7.86780111 0.00310704144,7.73841279 0.0092509775,7.60982032 L0.0207357842,7.41753725 Z M0.904829023,4.29913176 L2.95663252,5.41335897 C2.65390971,6.00264583 2.45147533,6.65191911 2.37187024,7.33863796 L0.0481668759,7.11512124 C0.158701166,6.10843225 0.456062662,5.15796164 0.904829023,4.29913176 Z" id="Combined-Shape"></path>
        </g>
    </g>
</svg>
